images/25644.svg

<?xml version="1.0" encoding="UTF-8"?>
<svg xmlns="http://www.w3.org/2000/svg" xmlns:xlink="http://www.w3.org/1999/xlink" width="300pt" height="300pt" viewBox="0 0 300 300" version="1.1">
<defs>
<g>
<symbol overflow="visible" id="glyph0-0">
<path style="stroke:none;" d="M 0.453125 1.59375 L 0.453125 -6.34375 L 4.953125 -6.34375 L 4.953125 1.59375 Z M 0.953125 1.09375 L 4.453125 1.09375 L 4.453125 -5.84375 L 0.953125 -5.84375 Z M 0.953125 1.09375 "/>
</symbol>
<symbol overflow="visible" id="glyph0-1">
<path style="stroke:none;" d="M 3.546875 -5.953125 C 2.898438 -5.953125 2.382812 -5.710938 2 -5.234375 C 1.625 -4.753906 1.4375 -4.101562 1.4375 -3.28125 C 1.4375 -2.445312 1.625 -1.789062 2 -1.3125 C 2.382812 -0.832031 2.898438 -0.59375 3.546875 -0.59375 C 4.191406 -0.59375 4.703125 -0.832031 5.078125 -1.3125 C 5.453125 -1.789062 5.640625 -2.445312 5.640625 -3.28125 C 5.640625 -4.101562 5.453125 -4.753906 5.078125 -5.234375 C 4.703125 -5.710938 4.191406 -5.953125 3.546875 -5.953125 Z M 3.546875 -6.6875 C 4.460938 -6.6875 5.195312 -6.375 5.75 -5.75 C 6.300781 -5.132812 6.578125 -4.3125 6.578125 -3.28125 C 6.578125 -2.238281 6.300781 -1.410156 5.75 -0.796875 C 5.195312 -0.179688 4.460938 0.125 3.546875 0.125 C 2.617188 0.125 1.878906 -0.179688 1.328125 -0.796875 C 0.773438 -1.410156 0.5 -2.238281 0.5 -3.28125 C 0.5 -4.3125 0.773438 -5.132812 1.328125 -5.75 C 1.878906 -6.375 2.617188 -6.6875 3.546875 -6.6875 Z M 3.546875 -6.6875 "/>
</symbol>
</g>
</defs>
<g id="surface42321">
<rect x="0" y="0" width="300" height="300" style="fill:rgb(100%,100%,100%);fill-opacity:1;stroke:none;"/>
<path style="fill:none;stroke-width:1.2;stroke-linecap:butt;stroke-linejoin:miter;stroke:rgb(0%,0%,0%);stroke-opacity:1;stroke-miterlimit:10;" d="M 36.328125 150.703125 L 54.515625 141.539062 "/>
<path style="fill:none;stroke-width:1.2;stroke-linecap:butt;stroke-linejoin:miter;stroke:rgb(0%,0%,0%);stroke-opacity:1;stroke-miterlimit:10;" d="M 34.171875 146.421875 L 52.359375 137.261719 "/>
<path style="fill:none;stroke-width:1.2;stroke-linecap:butt;stroke-linejoin:miter;stroke:rgb(0%,0%,0%);stroke-opacity:1;stroke-miterlimit:10;" d="M 53.4375 139.398438 L 70.46875 150.570312 "/>
<path style="fill:none;stroke-width:1.2;stroke-linecap:butt;stroke-linejoin:miter;stroke:rgb(0%,0%,0%);stroke-opacity:1;stroke-miterlimit:10;" d="M 68.078125 150.433594 L 67.496094 160.601562 "/>
<path style="fill:none;stroke-width:1.2;stroke-linecap:butt;stroke-linejoin:miter;stroke:rgb(100%,0%,0%);stroke-opacity:1;stroke-miterlimit:10;" d="M 67.496094 160.601562 L 66.917969 170.765625 "/>
<path style="fill:none;stroke-width:1.2;stroke-linecap:butt;stroke-linejoin:miter;stroke:rgb(0%,0%,0%);stroke-opacity:1;stroke-miterlimit:10;" d="M 72.859375 150.707031 L 72.28125 160.871094 "/>
<path style="fill:none;stroke-width:1.2;stroke-linecap:butt;stroke-linejoin:miter;stroke:rgb(100%,0%,0%);stroke-opacity:1;stroke-miterlimit:10;" d="M 72.28125 160.871094 L 71.703125 171.039062 "/>
<path style="fill:none;stroke-width:1.2;stroke-linecap:butt;stroke-linejoin:miter;stroke:rgb(0%,0%,0%);stroke-opacity:1;stroke-miterlimit:10;" d="M 70.46875 150.570312 L 79.5625 145.988281 "/>
<path style="fill:none;stroke-width:1.2;stroke-linecap:butt;stroke-linejoin:miter;stroke:rgb(100%,0%,0%);stroke-opacity:1;stroke-miterlimit:10;" d="M 79.5625 145.988281 L 88.65625 141.40625 "/>
<path style=" stroke:none;fill-rule:nonzero;fill:rgb(100%,100%,100%);fill-opacity:1;" d="M 65.308594 165.402344 L 73.308594 165.402344 L 73.308594 176.402344 L 65.308594 176.402344 Z M 65.308594 165.402344 "/>
<g style="fill:rgb(100%,0%,0%);fill-opacity:1;">
  <use xlink:href="#glyph0-1" x="65.308594" y="174.06543"/>
</g>
<path style="fill:none;stroke-width:1.2;stroke-linecap:butt;stroke-linejoin:miter;stroke:rgb(100%,0%,0%);stroke-opacity:1;stroke-miterlimit:10;" d="M 88.65625 141.40625 L 97.171875 146.992188 "/>
<path style="fill:none;stroke-width:1.2;stroke-linecap:butt;stroke-linejoin:miter;stroke:rgb(0%,0%,0%);stroke-opacity:1;stroke-miterlimit:10;" d="M 97.171875 146.992188 L 105.6875 152.574219 "/>
<path style=" stroke:none;fill-rule:nonzero;fill:rgb(100%,100%,100%);fill-opacity:1;" d="M 84.65625 135.90625 L 92.65625 135.90625 L 92.65625 146.90625 L 84.65625 146.90625 Z M 84.65625 135.90625 "/>
<g style="fill:rgb(100%,0%,0%);fill-opacity:1;">
  <use xlink:href="#glyph0-1" x="84.65625" y="144.569336"/>
</g>
<path style="fill:none;stroke-width:1.2;stroke-linecap:butt;stroke-linejoin:miter;stroke:rgb(0%,0%,0%);stroke-opacity:1;stroke-miterlimit:10;" d="M 105.6875 152.574219 L 123.875 143.410156 "/>
<path style="fill:none;stroke-width:1.2;stroke-linecap:butt;stroke-linejoin:miter;stroke:rgb(0%,0%,0%);stroke-opacity:1;stroke-miterlimit:10;" d="M 123.875 143.410156 L 140.90625 154.582031 "/>
<path style="fill:none;stroke-width:1.2;stroke-linecap:butt;stroke-linejoin:miter;stroke:rgb(0%,0%,0%);stroke-opacity:1;stroke-miterlimit:10;" d="M 140.90625 154.582031 L 159.09375 145.417969 "/>
<path style="fill:none;stroke-width:1.2;stroke-linecap:butt;stroke-linejoin:miter;stroke:rgb(0%,0%,0%);stroke-opacity:1;stroke-miterlimit:10;" d="M 159.09375 145.417969 L 176.125 156.589844 "/>
<path style="fill:none;stroke-width:1.2;stroke-linecap:butt;stroke-linejoin:miter;stroke:rgb(0%,0%,0%);stroke-opacity:1;stroke-miterlimit:10;" d="M 176.125 156.589844 L 194.3125 147.425781 "/>
<path style="fill:none;stroke-width:1.2;stroke-linecap:butt;stroke-linejoin:miter;stroke:rgb(0%,0%,0%);stroke-opacity:1;stroke-miterlimit:10;" d="M 194.3125 147.425781 L 202.828125 153.007812 "/>
<path style="fill:none;stroke-width:1.2;stroke-linecap:butt;stroke-linejoin:miter;stroke:rgb(100%,0%,0%);stroke-opacity:1;stroke-miterlimit:10;" d="M 202.828125 153.007812 L 211.34375 158.59375 "/>
<path style="fill:none;stroke-width:1.2;stroke-linecap:butt;stroke-linejoin:miter;stroke:rgb(100%,0%,0%);stroke-opacity:1;stroke-miterlimit:10;" d="M 211.34375 158.59375 L 220.4375 154.011719 "/>
<path style="fill:none;stroke-width:1.2;stroke-linecap:butt;stroke-linejoin:miter;stroke:rgb(0%,0%,0%);stroke-opacity:1;stroke-miterlimit:10;" d="M 220.4375 154.011719 L 229.53125 149.429688 "/>
<path style=" stroke:none;fill-rule:nonzero;fill:rgb(100%,100%,100%);fill-opacity:1;" d="M 207.34375 153.09375 L 215.34375 153.09375 L 215.34375 164.09375 L 207.34375 164.09375 Z M 207.34375 153.09375 "/>
<g style="fill:rgb(100%,0%,0%);fill-opacity:1;">
  <use xlink:href="#glyph0-1" x="207.34375" y="161.756836"/>
</g>
<path style="fill:none;stroke-width:1.2;stroke-linecap:butt;stroke-linejoin:miter;stroke:rgb(0%,0%,0%);stroke-opacity:1;stroke-miterlimit:10;" d="M 231.921875 149.566406 L 232.503906 139.398438 "/>
<path style="fill:none;stroke-width:1.2;stroke-linecap:butt;stroke-linejoin:miter;stroke:rgb(100%,0%,0%);stroke-opacity:1;stroke-miterlimit:10;" d="M 232.503906 139.398438 L 233.082031 129.234375 "/>
<path style="fill:none;stroke-width:1.2;stroke-linecap:butt;stroke-linejoin:miter;stroke:rgb(0%,0%,0%);stroke-opacity:1;stroke-miterlimit:10;" d="M 227.140625 149.292969 L 227.71875 139.128906 "/>
<path style="fill:none;stroke-width:1.2;stroke-linecap:butt;stroke-linejoin:miter;stroke:rgb(100%,0%,0%);stroke-opacity:1;stroke-miterlimit:10;" d="M 227.71875 139.128906 L 228.296875 128.960938 "/>
<path style="fill:none;stroke-width:1.2;stroke-linecap:butt;stroke-linejoin:miter;stroke:rgb(0%,0%,0%);stroke-opacity:1;stroke-miterlimit:10;" d="M 229.53125 149.429688 L 246.5625 160.601562 "/>
<path style=" stroke:none;fill-rule:nonzero;fill:rgb(100%,100%,100%);fill-opacity:1;" d="M 226.691406 123.597656 L 234.691406 123.597656 L 234.691406 134.597656 L 226.691406 134.597656 Z M 226.691406 123.597656 "/>
<g style="fill:rgb(100%,0%,0%);fill-opacity:1;">
  <use xlink:href="#glyph0-1" x="226.691406" y="132.260742"/>
</g>
<path style="fill:none;stroke-width:1.2;stroke-linecap:butt;stroke-linejoin:miter;stroke:rgb(0%,0%,0%);stroke-opacity:1;stroke-miterlimit:10;" d="M 247.640625 162.738281 L 265.828125 153.578125 "/>
<path style="fill:none;stroke-width:1.2;stroke-linecap:butt;stroke-linejoin:miter;stroke:rgb(0%,0%,0%);stroke-opacity:1;stroke-miterlimit:10;" d="M 245.484375 158.460938 L 263.671875 149.296875 "/>
</g>
</svg>

<svg xmlns="http://www.w3.org/2000/svg" xmlns:xlink="http://www.w3.org/1999/xlink" width="300pt" height="300pt" viewBox="0 0 300 300"><defs><symbol overflow="visible"><path d="M.453 1.594v-7.938h4.5v7.938zm.5-.5h3.5v-6.938h-3.5zm0 0"/></symbol><symbol overflow="visible" id="a"><path d="M3.547-5.953c-.65 0-1.164.242-1.547.72-.375.48-.563 1.13-.563 1.952 0 .835.188 1.49.563 1.967.383.48.898.72 1.547.72.644 0 1.156-.24 1.53-.72.376-.476.564-1.132.564-1.968 0-.822-.187-1.474-.562-1.954-.375-.477-.887-.72-1.53-.72zm0-.734c.914 0 1.648.312 2.203.937.55.617.828 1.438.828 2.47 0 1.042-.277 1.87-.828 2.483-.555.617-1.29.922-2.203.922-.93 0-1.668-.305-2.22-.922C.774-1.41.5-2.237.5-3.28c0-1.033.273-1.853.828-2.47.55-.625 1.29-.938 2.22-.938zm0 0"/></symbol></defs><g><path fill="#fff" d="M0 0h300v300H0z"/><path d="M36.328 150.703l18.188-9.164M34.172 146.422l18.187-9.16M53.438 139.398l17.03 11.172M68.078 150.434l-.582 10.168" stroke-width="1.2" stroke="#000" stroke-miterlimit="10" fill="none"/><path d="M67.496 160.602l-.578 10.164" stroke-width="1.2" stroke="#f00" stroke-miterlimit="10" fill="none"/><path d="M72.86 150.707l-.58 10.164" stroke-width="1.2" stroke="#000" stroke-miterlimit="10" fill="none"/><path d="M72.28 160.87l-.577 10.17" stroke-width="1.2" stroke="#f00" stroke-miterlimit="10" fill="none"/><path d="M70.47 150.57l9.093-4.582" stroke-width="1.2" stroke="#000" stroke-miterlimit="10" fill="none"/><path d="M79.563 145.988l9.093-4.582" stroke-width="1.2" stroke="#f00" stroke-miterlimit="10" fill="none"/><path d="M65.31 165.402h8v11h-8zm0 0" fill="#fff"/><use xlink:href="#a" x="65.309" y="174.065" fill="#f00"/><path d="M88.656 141.406l8.516 5.586" stroke-width="1.2" stroke="#f00" stroke-miterlimit="10" fill="none"/><path d="M97.172 146.992l8.516 5.582" stroke-width="1.2" stroke="#000" stroke-miterlimit="10" fill="none"/><path d="M84.656 135.906h8v11h-8zm0 0" fill="#fff"/><use xlink:href="#a" x="84.656" y="144.569" fill="#f00"/><path d="M105.688 152.574l18.187-9.164M123.875 143.41l17.03 11.172M140.906 154.582l18.188-9.164M159.094 145.418l17.03 11.172M176.125 156.59l18.188-9.164M194.313 147.426l8.515 5.582" stroke-width="1.2" stroke="#000" stroke-miterlimit="10" fill="none"/><path d="M202.828 153.008l8.516 5.586M211.344 158.594l9.094-4.582" stroke-width="1.2" stroke="#f00" stroke-miterlimit="10" fill="none"/><path d="M220.438 154.012l9.093-4.582" stroke-width="1.2" stroke="#000" stroke-miterlimit="10" fill="none"/><path d="M207.344 153.094h8v11h-8zm0 0" fill="#fff"/><use xlink:href="#a" x="207.344" y="161.757" fill="#f00"/><path d="M231.922 149.566l.582-10.168" stroke-width="1.2" stroke="#000" stroke-miterlimit="10" fill="none"/><path d="M232.504 139.398l.578-10.164" stroke-width="1.2" stroke="#f00" stroke-miterlimit="10" fill="none"/><path d="M227.14 149.293l.58-10.164" stroke-width="1.2" stroke="#000" stroke-miterlimit="10" fill="none"/><path d="M227.72 139.13l.577-10.17" stroke-width="1.2" stroke="#f00" stroke-miterlimit="10" fill="none"/><path d="M229.53 149.43l17.032 11.172" stroke-width="1.2" stroke="#000" stroke-miterlimit="10" fill="none"/><path d="M226.69 123.598h8v11h-8zm0 0" fill="#fff"/><use xlink:href="#a" x="226.691" y="132.261" fill="#f00"/><path d="M247.64 162.738l18.188-9.16M245.484 158.46l18.188-9.163" stroke-width="1.2" stroke="#000" stroke-miterlimit="10" fill="none"/></g></svg>
